X:1
T:Title
%%score ( 1 2 3 ) ( 4 5 )
L:1/8
M:4/4
K:F
V:1 treble nm="Choir Aahs, Staff"
V:2 treble 
V:3 treble 
V:4 bass nm="Choir Aahs, Staff-1"
V:5 bass 
V:1
 [CF]2 AB [Ec]2 [Fc]2 | [Fd]2 cB [CA]2 [CF]2 | [FB]2 [FA]2 [EG]2 [EG]2 | [CA]2 GF G2 [Gc]2 | %4
w: By~Geist\-reiches~Gesang\-Buch,~Halle,~1704 * * * *||||
 c3 =B [Ec]4 | C2 [A,C]2 [A,D]2 [A,D]2 | z2 .G2 z4 | [CF]2 [EG]2 [FA]2 [FA]2 | %8
w: ||||
 [Gc]2 F2 [FB]2 [FA]2 | G4 z4 |] %10
w: ||
V:2
 z2 F2 z4 | z2 E2 z4 | x8 | z2 D2 z4 | G2 G2 z4 | x8 | [DG]2 =B,-[B,F] [CE]2 C2 | x8 | x8 | %9
 F2 z F [CF]4 |] %10
V:3
 x8 | x8 | x8 | x8 | x8 | x8 | x8 | x8 | x8 | z2 E2 z4 |] %10
V:4
 [F,A,]2 [D,F,]2 [C,G,]2 [F,A,]2 | B,A, [C,G,]2 F,2 [F,A,]2 | [D,B,]2 [F,C]2 [C,C]2 [C,C]2 | %3
 [F,A,]2 [D,A,]2 [E,C]2 [C,E]2 | [G,D]2 [G,,D]2 [C,C]4 | [F,A,]2 F,2 [D,F,]2 F,-[C,F,] | %6
 [=B,,G,]2 [G,,G,]2 [C,G,]2 [C,C]2 | [A,C]2 [G,B,]2 [F,C]2 [D,D]2 | [E,C]2 [F,A,]2 D-[D,D] [F,C]2 | %9
 [B,,C]2 [C,C]2 [F,A,]4 |] %10
V:5
 x8 | B,,2 z2 z4 | x8 | x8 | x8 | z4 z2 .D,2 | x8 | x8 | z4 .B,,2 z2 | x8 |] %10

